X:10298
T:Marcha Procesional (Llanes)
R:marcha
S:Versin recoya en Llanes
Z:Mtodu de Gaita
M:6/8
L:1/8
Q:3/8=80
K:C
G|:E2 F E/2D/2CD|E2 D C2 C|D2 E FED|
G3- G2G|E2 F ~E/2D/2CD|E2 D C2 C|D2 E FED|
[1 C3- C2G:|[2 C6||G2 E G2 E|FG~A G3|
F2 D F2 D|EFG E3|G2 E G2 E|FG~A G3|
|:c2 B A2 G|[1 FE~D C3:|[2 FE~D C3-|C3 z3||
